X:367
T:Zemer Atik
T:Nigun Atik
Z:Jack Campin, http://www.campin.me.uk/
F:Jack Campin's Nine-Note Tunebook
% last edit 03-02-2013
N:Israeli dance from the 1960s, not really traditional
M:4/4
L:1/8
Q:1/4=120
K:GMin
^FGEF GAFG|A8        | ABcd cBAG |A8       |
 Addc cBBA|G2A2 ^F2D2|^FGEF GAFE |D8      ||
 d4   d4  |cdcB  c2A2| B4   B2AG |A2d2 A2D2|
 d4   d4  |cdcB  c2A2| GABG ABA^F|G8      |]


% == Indian songs ===========================================================

